src/microsoft-edge.svg

<svg viewBox="0 0 24 24" fill="none" xmlns="http://www.w3.org/2000/svg">
<path d="M20.0584 16.828C19.7927 16.9669 19.5188 17.0893 19.2381 17.1946C18.3447 17.5289 17.3983 17.6992 16.4443 17.6973C12.7619 17.6973 9.55408 15.1642 9.55408 11.9136C9.56368 11.0258 10.0528 10.2127 10.8327 9.78833C7.50194 9.92841 6.6459 13.3992 6.6459 15.4327C6.6459 21.1821 11.9447 21.765 13.0864 21.765C13.7019 21.765 14.6303 21.586 15.1875 21.4101L15.2895 21.3759C17.4336 20.6346 19.2616 19.1855 20.4724 17.2669C20.5487 17.1467 20.5337 16.9901 20.436 16.8865C20.3383 16.783 20.1828 16.7589 20.0584 16.828Z" fill="url(#paint0_linear_29_856)"/>
<path d="M10.3043 20.7876C9.61016 20.3568 9.00862 19.7923 8.53462 19.1269C7.44105 17.6286 7.06557 15.7236 7.50881 13.9224C7.95205 12.1212 9.16869 10.608 10.8327 9.78836C11.0755 9.67396 11.4903 9.46696 12.042 9.47708C12.83 9.48281 13.5699 9.85721 14.0412 10.4888C14.3555 10.9083 14.5288 11.4167 14.5362 11.9409C14.5362 11.9245 16.4397 5.74634 8.3105 5.74634C4.89416 5.74634 2.08482 8.98836 2.08482 11.8327C2.07134 13.3373 2.39328 14.8261 3.02723 16.1907C5.17179 20.7664 10.4029 23.0113 15.1969 21.4133C13.5557 21.9307 11.7702 21.7032 10.3113 20.7907L10.3043 20.7876Z" fill="#1595DF"/>
<path d="M13.9307 13.5844C13.8677 13.6661 13.6739 13.779 13.6739 14.0249C13.6739 14.228 13.8062 14.4233 14.0412 14.5875C15.1603 15.3658 17.27 15.263 17.2755 15.263C18.1047 15.261 18.9182 15.0366 19.6311 14.6132C21.0946 13.7587 21.9957 12.1927 21.9992 10.4981C22.0195 8.75409 21.3767 7.59455 21.1167 7.08093C19.4677 3.85525 15.9082 2 12.0374 2C6.59024 1.99946 2.15286 6.37443 2.07626 11.821C2.11362 8.97743 4.94008 6.68093 8.30194 6.68093C8.57432 6.68093 10.1276 6.70739 11.5704 7.46459C12.842 8.1323 13.5082 8.93852 13.9712 9.73774C14.4521 10.5681 14.5377 11.6171 14.5377 12.035C14.5377 12.4529 14.3245 13.0724 13.9307 13.5844Z" fill="#32C1E7"/>
<path d="M13.9307 13.5844C13.8677 13.6661 13.6739 13.779 13.6739 14.0249C13.6739 14.228 13.8062 14.4233 14.0412 14.5875C15.1603 15.3658 17.27 15.263 17.2755 15.263C18.1047 15.261 18.9182 15.0366 19.6311 14.6132C21.0946 13.7587 21.9957 12.1927 21.9992 10.4981C22.0195 8.75409 21.3767 7.59455 21.1167 7.08093C19.4677 3.85525 15.9082 2 12.0374 2C6.59024 1.99946 2.15286 6.37443 2.07626 11.821C2.11362 8.97743 4.94008 6.68093 8.30194 6.68093C8.57432 6.68093 10.1276 6.70739 11.5704 7.46459C12.842 8.1323 13.5082 8.93852 13.9712 9.73774C14.4521 10.5681 14.5377 11.6171 14.5377 12.035C14.5377 12.4529 14.3245 13.0724 13.9307 13.5844Z" fill="url(#paint1_radial_29_856)"/>
<defs>
<linearGradient id="paint0_linear_29_856" x1="6.6459" y1="15.7782" x2="20.5244" y2="15.7782" gradientUnits="userSpaceOnUse">
<stop stop-color="#0C59A4"/>
<stop offset="1" stop-color="#114A8B"/>
</linearGradient>
<radialGradient id="paint1_radial_29_856" cx="0" cy="0" r="1" gradientUnits="userSpaceOnUse" gradientTransform="translate(2.50754 19.1391) rotate(73.5102) scale(13.84 6.75794)">
<stop stop-color="#66EB6E"/>
<stop offset="1" stop-color="#66EB6E" stop-opacity="0"/>
</radialGradient>
</defs>
</svg>

<svg xmlns="http://www.w3.org/2000/svg" fill="none" viewBox="0 0 24 24"><path fill="url(#microsoft-edge_svg__a)" d="M20.058 16.828a7.32 7.32 0 0 1-.82.367 7.927 7.927 0 0 1-2.794.502c-3.682 0-6.89-2.533-6.89-5.783a2.45 2.45 0 0 1 1.279-2.126c-3.331.14-4.187 3.611-4.187 5.645 0 5.75 5.299 6.332 6.44 6.332.616 0 1.544-.179 2.101-.355l.103-.034a9.988 9.988 0 0 0 5.182-4.11.311.311 0 0 0-.414-.438Z"/><path fill="#1595DF" d="M10.304 20.788a6.163 6.163 0 0 1-1.77-1.661 6.282 6.282 0 0 1 2.299-9.339c.242-.114.657-.321 1.209-.31.788.005 1.528.38 2 1.01.313.42.487.929.494 1.453 0-.017 1.904-6.195-6.226-6.195-3.416 0-6.225 3.242-6.225 6.087a10.128 10.128 0 0 0 .942 4.358 9.961 9.961 0 0 0 12.17 5.222 5.88 5.88 0 0 1-4.886-.622l-.007-.003Z"/><path fill="#32C1E7" d="M13.93 13.584c-.062.082-.256.195-.256.44 0 .204.132.4.367.564 1.12.778 3.229.675 3.235.675a4.635 4.635 0 0 0 2.355-.65A4.777 4.777 0 0 0 22 10.498c.02-1.744-.622-2.903-.882-3.417C19.467 3.855 15.908 2 12.037 2a9.961 9.961 0 0 0-9.96 9.821c.037-2.844 2.863-5.14 6.225-5.14.272 0 1.826.026 3.268.784 1.272.667 1.938 1.474 2.401 2.273.481.83.567 1.88.567 2.297 0 .418-.213 1.037-.607 1.55Z"/><path fill="url(#microsoft-edge_svg__b)" d="M13.93 13.584c-.062.082-.256.195-.256.44 0 .204.132.4.367.564 1.12.778 3.229.675 3.235.675a4.635 4.635 0 0 0 2.355-.65A4.777 4.777 0 0 0 22 10.498c.02-1.744-.622-2.903-.882-3.417C19.467 3.855 15.908 2 12.037 2a9.961 9.961 0 0 0-9.96 9.821c.037-2.844 2.863-5.14 6.225-5.14.272 0 1.826.026 3.268.784 1.272.667 1.938 1.474 2.401 2.273.481.83.567 1.88.567 2.297 0 .418-.213 1.037-.607 1.55Z"/><defs><radialGradient id="microsoft-edge_svg__b" cx="0" cy="0" r="1" gradientTransform="matrix(3.92841 13.27076 -6.47999 1.9182 2.508 19.14)" gradientUnits="userSpaceOnUse"><stop stop-color="#66EB6E"/><stop offset="1" stop-color="#66EB6E" stop-opacity="0"/></radialGradient><linearGradient id="microsoft-edge_svg__a" x1="6.646" x2="20.524" y1="15.778" y2="15.778" gradientUnits="userSpaceOnUse"><stop stop-color="#0C59A4"/><stop offset="1" stop-color="#114A8B"/></linearGradient></defs></svg>
